!!!Genre:	Olandre (lyondre)
!!!Mode:	Minor
!!!Listening/dance:	dance
!!!:	*B-:
!!!One_Mode:	no
**kern
*I"P1
*clefG2
*k[b-e-]
*>bM
*B-:
*M3/4
*>A
!LO:TX:a:i:t=Bb-major
4f
=1
4b-
4dd
12ee-L
12dd
12ccJ
=2
4b-
4dd
12fL
12g
12aJ
=3
4b-
4dd
12ddL
12ee-
12ccJ
=4
4b-
4bb-
12fL
12g
12aJ
=5
4b-
4dd
12ee-L
12dd
12ccJ
=6
4b-
4ff
12fL
12g
12aJ
=7
4b-
4dd
12ee-L
12dd
12ccJ
=
4b-
4r
=8||
*>B
*>eM
*g:
!LO:TX:a:i:t=G-minor
4dd
=9
(16qqeen/LL
16qqgg/JJ
4.ff)
8ee
8ffL
8ggJ
=10
2ddt
4cc
=11
4.b-
8cc
8aL
8b-J
=12
4g
(8qff#X/
4gg)
(8qff#/
4gg)
=13
4.ffn
8een
8ffL
8ggJ
=14
2ddt
4cc
=15
4.b-
8dd
8.aL
16ddJk
=16
2.g
=17!|:
*>C
4f
8ffL
8ffJ
8ffL
8ffJ
=18
8ffL
8ggJ
8ee-L
8ddJ
8ee-L
8ee-J
=19
8ee-L
8ffJ
8.ddL
16cc#XJk
4dd
=20
8ddL
8ee-J
4ccn
4cc
=21
4.gg
8dd
8ee-L
8ccJ
=22
2ddt
4cc
=23
4.b-
8dd
8aL
8ddJ
=24
2.g
=:|!
*-
